dist/flags/l/780.svg

<svg width="32" height="24" viewBox="0 0 32 24" fill="none" xmlns="http://www.w3.org/2000/svg">
<mask id="mask0" mask-type="alpha" maskUnits="userSpaceOnUse" x="0" y="0" width="32" height="24">
<rect width="32" height="24" fill="white"/>
</mask>
<g mask="url(#mask0)">
<path fill-rule="evenodd" clip-rule="evenodd" d="M0 0V24H32V0H0Z" fill="#E31D1C"/>
<mask id="mask1" mask-type="alpha" maskUnits="userSpaceOnUse" x="0" y="0" width="32" height="24">
<path fill-rule="evenodd" clip-rule="evenodd" d="M0 0V24H32V0H0Z" fill="white"/>
</mask>
<g mask="url(#mask1)">
<path d="M29.5595 29.4958L29.0167 29.9397L28.5373 29.4279L-1.80681 -2.97079L-2.35513 -3.55623L-1.73422 -4.06404L1.36213 -6.59636L1.90497 -7.04031L2.38434 -6.52848L32.7284 25.8702L33.2768 26.4557L32.6559 26.9635L29.5595 29.4958Z" fill="#272727" stroke="#F7FCFF" stroke-width="1.5"/>
</g>
</g>
</svg>

<svg width="32" height="24" fill="none" xmlns="http://www.w3.org/2000/svg">
  <mask id="a" maskUnits="userSpaceOnUse" x="0" y="0" width="32" height="24">
    <path fill="#fff" d="M0 0h32v24H0z"/>
  </mask>
  <g mask="url(#a)">
    <path fill-rule="evenodd" clip-rule="evenodd" d="M0 0v24h32V0H0z" fill="#E31D1C"/>
    <mask id="b" maskUnits="userSpaceOnUse" x="0" y="0" width="32" height="24">
      <path fill-rule="evenodd" clip-rule="evenodd" d="M0 0v24h32V0H0z" fill="#fff"/>
    </mask>
    <g mask="url(#b)">
      <path d="M29.56 29.496l-.543.444-.48-.512L-1.807-2.971l-.548-.585.62-.508 3.097-2.532.543-.444.48.512L32.727 25.87l.549.586-.621.508-3.096 2.532z" fill="#272727" stroke="#F7FCFF" stroke-width="1.5"/>
    </g>
  </g>
</svg>
